X: 28207
T: Mrs. Crotty's Christening
R: reel
M: 4/4
K: Dmajor
~d3A BAFB|ABBA BAFA|BEED ~E3A|(3Bcd ec dcBA|
~d3A BAFB|ABBA BAFA|BEED ~E3A|(3Bcd ec d2 (3ABc||
~d2 fd Adfd|~d2 ef gfec|d2 fd Adfa|bfaf gfec|
~d2 fd Adfd|~d2 ef gfec|~d2 fd Adfa|bfaf gfec||

